X:1
T:The Valley of Knockanure
M:6/8
L:1/8
K:Eb
 E/2F/2| G2 G F3/2 G/2 F| E2 C F2 E/2C/2| B, G,2 B,CC| C3- C2 C|C-B, C E2 F|\
G-F G B2 G| F F2 E2 F| G3- G2 B,| C2 C EEF| G2 G B2 G| FGF E2 F| G3- G2 E/2F/2|\
 G2 G F3/2 G/2 F| E2 C F2 E/2C/2| B, G,2 B,CC| C3- C2||
